X:175
T: NUN SAGT EINMAL IHR GAENSCHEN MIR
N: F0310
O: Europa, Mitteleuropa, Deutschland
R: Jugend - Lied, Belehrung, Tiere
M: 2/4
L: 1/16
K: G
d2 | B3GG2D2 | E2F2G2
A2 | B2d2B2G2 | ded2z2
d2 | B3GG2D2 | E2F2G2
A2 | B2d2B2G2 | ded2z2
d2 | edcccBAG | FGFED2
d2 | BcdBGABc | B4A2B2 | G4z2

